src/images/Ishan/Process2.svg

<svg fill="none" height="300" viewBox="0 0 300 300" width="300" xmlns="http://www.w3.org/2000/svg"><path d="m288 0h-276c-6.62742 0-12 5.37258-12 12v276c0 6.627 5.37258 12 12 12h276c6.627 0 12-5.373 12-12v-276c0-6.62742-5.373-12-12-12z" fill="#fff"/><path d="m289.92 178.24h-198.83c-.4048.003-.8062-.075-1.181-.228s-.7156-.379-1.0028-.664-.5151-.625-.6706-.999c-.1555-.373-.2356-.774-.2356-1.179v-109.4001c.0026-.8134.3269-1.5927.9021-2.1679.5752-.5751 1.3545-.8994 2.1679-.902h198.85c.815-.0001 1.597.3231 2.174.8985.578.5755.903 1.3563.906 2.1714v109.4001c0 .404-.08.804-.235 1.177s-.382.712-.668.997c-.286.286-.625.511-.999.665s-.774.232-1.178.231z" fill="#e5e5e5"/><path d="m285.73 174.05h-190.44c-.8109-.003-1.5883-.324-2.1645-.894-.5762-.571-.905-1.345-.9155-2.156v-101.0001c.0026-.816.3279-1.5979.905-2.1749.577-.5771 1.3589-.9024 2.175-.9051h190.44c.816.0027 1.598.328 2.175.9051.577.577.902 1.3589.905 2.1749v101.0001c-.011.811-.339 1.585-.916 2.156-.576.57-1.353.891-2.164.894z" fill="#fff"/><path d="m148.58 129.21h-35.83c-.395 0-.774-.157-1.054-.437-.279-.279-.436-.658-.436-1.053v-37.3101c0-.3961.157-.7761.436-1.0571.279-.2811.658-.4402 1.054-.4429h35.83c.396.0027.775.1618 1.054.4429.279.281.436.661.436 1.0571v37.3101c0 .395-.157.774-.436 1.053-.28.28-.659.437-1.054.437zm-35.83-39.7001c-.118 0-.234.0233-.343.0687-.109.0453-.207.1118-.29.1955s-.148.183-.192.2921c-.044.1092-.066.226-.065.3437v37.3101c-.001.118.021.234.065.344.044.109.109.208.192.292.083.083.181.15.29.195.109.046.225.069.343.069h35.83c.118 0 .234-.023.343-.069.109-.045.207-.112.29-.195.083-.084.148-.183.192-.292.044-.11.066-.226.065-.344v-37.3101c.001-.1177-.021-.2345-.065-.3437-.044-.1091-.109-.2084-.192-.2921s-.181-.1502-.29-.1955c-.109-.0454-.225-.0687-.343-.0687z" fill="#3f3e54"/><path d="m208.42 129.21h-35.82c-.196.001-.391-.036-.573-.111-.182-.074-.348-.183-.487-.322-.139-.138-.25-.303-.326-.485-.075-.181-.114-.376-.114-.572v-37.3101c0-.3978.158-.7793.439-1.0606.282-.2814.663-.4394 1.061-.4394h35.82c.398 0 .779.158 1.061.4394.281.2813.439.6628.439 1.0606v37.3101c0 .196-.039.391-.114.572-.076.182-.186.347-.326.485-.139.139-.305.248-.487.322-.182.075-.376.112-.573.111zm-35.82-39.7001c-.239 0-.468.0948-.636.2636-.169.1688-.264.3977-.264.6364v37.3101c0 .239.095.468.264.636.168.169.397.264.636.264h35.82c.239 0 .468-.095.636-.264.169-.168.264-.397.264-.636v-37.3101c0-.1182-.023-.2352-.068-.3444-.046-.1092-.112-.2084-.196-.292-.083-.0836-.182-.1499-.291-.1951-.11-.0452-.227-.0685-.345-.0685z" fill="#3f3e54"/><path d="m268.27 129.21h-35.83c-.395 0-.774-.157-1.054-.437-.279-.279-.436-.658-.436-1.053v-37.3101c0-.3961.157-.7761.436-1.0571.279-.2811.658-.4402 1.054-.4429h35.83c.396.0027.775.1618 1.054.4429.279.281.436.661.436 1.0571v37.3101c0 .395-.157.774-.436 1.053-.28.28-.659.437-1.054.437zm-35.83-39.7001c-.239 0-.468.0948-.636.2636-.169.1688-.264.3977-.264.6364v37.3101c0 .239.095.468.264.636.168.169.397.264.636.264h35.83c.118 0 .234-.023.343-.069.109-.045.207-.112.29-.195.083-.084.148-.183.192-.292.044-.11.066-.226.065-.344v-37.3101c.001-.1177-.021-.2345-.065-.3437-.044-.1091-.109-.2084-.192-.2921s-.181-.1502-.29-.1955c-.109-.0454-.225-.0687-.343-.0687z" fill="#3f3e54"/><g fill="#e5e5e5"><path d="m123.75 152c.265 0 .519-.105.707-.293.188-.187.293-.442.293-.707s-.105-.52-.293-.707c-.188-.188-.442-.293-.707-.293h-9.1c-.265 0-.52.105-.707.293-.188.187-.293.442-.293.707s.105.52.293.707c.187.188.442.293.707.293z"/><path d="m146.68 146.06c.265 0 .519-.105.707-.293.188-.187.293-.442.293-.707s-.105-.52-.293-.707c-.188-.188-.442-.293-.707-.293h-32c-.265 0-.52.105-.707.293-.188.187-.293.442-.293.707s.105.52.293.707c.187.188.442.293.707.293z"/><path d="m183.59 152c.265 0 .52-.105.707-.293.188-.187.293-.442.293-.707s-.105-.52-.293-.707c-.187-.188-.442-.293-.707-.293h-9.09c-.265 0-.52.105-.707.293-.188.187-.293.442-.293.707s.105.52.293.707c.187.188.442.293.707.293z"/><path d="m206.52 146.06c.265 0 .52-.105.707-.293.188-.187.293-.442.293-.707s-.105-.52-.293-.707c-.187-.188-.442-.293-.707-.293h-32c-.265 0-.52.105-.707.293-.188.187-.293.442-.293.707s.105.52.293.707c.187.188.442.293.707.293z"/><path d="m243.44 152c.265 0 .52-.105.707-.293.188-.187.293-.442.293-.707s-.105-.52-.293-.707c-.187-.188-.442-.293-.707-.293h-9.1c-.265 0-.519.105-.707.293-.188.187-.293.442-.293.707s.105.52.293.707c.188.188.442.293.707.293z"/><path d="m266.37 146.06c.265 0 .52-.105.707-.293.188-.187.293-.442.293-.707s-.105-.52-.293-.707c-.187-.188-.442-.293-.707-.293h-32c-.265 0-.519.105-.707.293-.188.187-.293.442-.293.707s.105.52.293.707c.188.188.442.293.707.293z"/></g><path d="m146.68 140.18c.265 0 .519-.105.707-.293.188-.187.293-.442.293-.707s-.105-.52-.293-.707c-.188-.188-.442-.293-.707-.293h-32c-.265 0-.52.105-.707.293-.188.187-.293.442-.293.707s.105.52.293.707c.187.188.442.293.707.293z" fill="#eb0029"/><path d="m206.52 140.18c.265 0 .52-.105.707-.293.188-.187.293-.442.293-.707s-.105-.52-.293-.707c-.187-.188-.442-.293-.707-.293h-32c-.265 0-.52.105-.707.293-.188.187-.293.442-.293.707s.105.52.293.707c.187.188.442.293.707.293z" fill="#eb0029"/><path d="m266.37 140.18c.265 0 .52-.105.707-.293.188-.187.293-.442.293-.707s-.105-.52-.293-.707c-.187-.188-.442-.293-.707-.293h-32c-.265 0-.519.105-.707.293-.188.187-.293.442-.293.707s.105.52.293.707c.188.188.442.293.707.293z" fill="#eb0029"/><path d="m140.94 122c.265 0 .519-.105.707-.293.188-.187.293-.442.293-.707s-.105-.52-.293-.707c-.188-.188-.442-.293-.707-.293h-20.55c-.265 0-.52.105-.707.293-.188.187-.293.442-.293.707s.105.52.293.707c.187.188.442.293.707.293h20.56z" fill="#e5e5e5"/><path d="m140.94 116c.265 0 .519-.105.707-.293.188-.187.293-.442.293-.707s-.105-.52-.293-.707c-.188-.188-.442-.293-.707-.293h-20.55c-.265 0-.52.105-.707.293-.188.187-.293.442-.293.707s.105.52.293.707c.187.188.442.293.707.293h20.56z" fill="#e5e5e5"/><path d="m130.66 109.01c3.551 0 6.43-2.879 6.43-6.43 0-3.5513-2.879-6.4301-6.43-6.4301s-6.43 2.8788-6.43 6.4301c0 3.551 2.879 6.43 6.43 6.43z" fill="#eb0029"/><path d="m200.79 122c.265 0 .52-.105.707-.293.188-.187.293-.442.293-.707s-.105-.52-.293-.707c-.187-.188-.442-.293-.707-.293h-20.56c-.265 0-.52.105-.707.293-.188.187-.293.442-.293.707s.105.52.293.707c.187.188.442.293.707.293z" fill="#e5e5e5"/><path d="m200.79 116c.265 0 .52-.105.707-.293.188-.187.293-.442.293-.707s-.105-.52-.293-.707c-.187-.188-.442-.293-.707-.293h-20.56c-.265 0-.52.105-.707.293-.188.187-.293.442-.293.707s.105.52.293.707c.187.188.442.293.707.293z" fill="#e5e5e5"/><path d="m190.51 109.01c3.551 0 6.43-2.879 6.43-6.43 0-3.5513-2.879-6.4301-6.43-6.4301s-6.43 2.8788-6.43 6.4301c0 3.551 2.879 6.43 6.43 6.43z" fill="#eb0029"/><path d="m260.63 122c.265 0 .52-.105.707-.293.188-.187.293-.442.293-.707s-.105-.52-.293-.707c-.187-.188-.442-.293-.707-.293h-20.56c-.265 0-.52.105-.707.293-.188.187-.293.442-.293.707s.105.52.293.707c.187.188.442.293.707.293z" fill="#e5e5e5"/><path d="m260.63 116c.265 0 .52-.105.707-.293.188-.187.293-.442.293-.707s-.105-.52-.293-.707c-.187-.188-.442-.293-.707-.293h-20.56c-.265 0-.52.105-.707.293-.188.187-.293.442-.293.707s.105.52.293.707c.187.188.442.293.707.293z" fill="#e5e5e5"/><path d="m250.35 109.01c3.551 0 6.43-2.879 6.43-6.43 0-3.5513-2.879-6.4301-6.43-6.4301s-6.43 2.8788-6.43 6.4301c0 3.551 2.879 6.43 6.43 6.43z" fill="#eb0029"/><path d="m55.1401 212.15 3.44 1.88-2.19 7.21-3.44.31-1.89-4.07z" fill="#f4bbb9"/><path d="m44.4899 226.56v3.45l-5.33-.32.08-2.83z" fill="#f4bbb9"/><path d="m56.3899 170.8-1.88 23.5-5.95 34.45-9.4-1.25 3.13-27.25-1.25-25.06z" fill="#2f2e40"/><path d="m31.3299 153.26 22.55.31 2.51 17.23-15.39 7.2-3.76 13.78 19.11 20.36-7.52 9.4s-10.61-14.4-18.44-22.54-4.07-32.9-4.07-32.9z" fill="#2f2e40"/><path d="m44.7999 108.78c3.8053 0 6.89-3.085 6.89-6.89 0-3.8052-3.0847-6.89-6.89-6.89-3.8052 0-6.89 3.0848-6.89 6.89 0 3.805 3.0848 6.89 6.89 6.89z" fill="#f4bbb9"/><path d="m47.31 106.59v6.89l-4.7 7.52s-7.21-5.33-5.64-6.58 1.88-11 1.88-11z" fill="#f4bbb9"/><path d="m47.3099 112.22 4.7 5.64-1.88 39.16-14.73-.31-2.5-34.15 3.13-8.77 2.15-2.92 3.8 5.74z" fill="#fff"/><path d="m54.8201 132.59 3.45 13.15-3.45 13.16 5.64 7.52 5-23.81s-3.74-19.42-4.06-21.61-.94-2.51-.94-2.51l-2.5.31z" fill="#2f2e40"/><path d="m29.7599 137.6-2.19 4.07-.62 6.89 1.25 7.83-4.39 7.21-4.38-19.74 4.7-25.37h1.87z" fill="#2f2e40"/><path d="m56.3901 211.84s4.39 1.25 6 1.57-.94 6.26-.94 6.26-1.56 8.15-1.88 9.71-2.5 6.89-5.32 7.52-.94-11-.94-11c-.5672-1.625-.9856-3.299-1.25-5 0-1.25 1.87-.62 1.87-.62 4.97-.61 2.46-8.44 2.46-8.44z" fill="#2f2e40"/><path d="m46.0499 236c-.31 1.88.32 1.88-4.7 2.51s-3.75-3.51-3.75-3.51c.2059-1.921.6251-3.812 1.25-5.64.94-2.5 5.95.63 5.95.63s1.57 4.09 1.25 6.01z" fill="#2f2e40"/><path d="m38.8399 103.67-.16 2.79c-1.2445-2.954-2.0334-6.079-2.34-9.2699-.31-4.7 5-5.64 8.15-6s8.45 1.88 8.45 4.38-5.63 1.88-7.83 1.26-3.11 4.7399-3.11 4.7399l-1.25.32z" fill="#2f2e40"/><path d="m49.16 114.44-1.85-2.22-5.33 4.39 5.33 3.76z" fill="#fff"/><path d="m36.03 113.79 2.19-2.82 3.76 5.64-4.7 3.45z" fill="#fff"/><path d="m55.7601 137-1.25 11.91 2.51 7.2 1.56 6.89s0 6.58-6.26 6.89-11.59-19.73-11.59-19.73-.94 4.38-1.57 6.89-11.28 12.53-11.28 12.53-2.5-.31-4.69-5.32 4.38-9.72 4.38-9.72l1.88-6.57-.63-8.15-4.38-21.3 13-6.73-1.41 18 4.7 14.09 7.05-31.17 2.35 1.73 10 4.07z" fill="#2f2e40"/><path d="m87.3501 238.73h-80v-.66h80.12z" fill="#3f3e54"/></svg>

<svg width="300" height="300" viewBox="0 0 300 300" fill="none" xmlns="http://www.w3.org/2000/svg">
<path d="M288 0H12C5.37258 0 0 5.37258 0 12V288C0 294.627 5.37258 300 12 300H288C294.627 300 300 294.627 300 288V12C300 5.37258 294.627 0 288 0Z" fill="white"/>
<path d="M289.92 178.24H91.09C90.6852 178.243 90.2838 178.165 89.909 178.012C89.5342 177.859 89.1934 177.633 88.9062 177.348C88.619 177.063 88.3911 176.723 88.2356 176.349C88.0801 175.976 88 175.575 88 175.17V65.7699C88.0026 64.9565 88.3269 64.1772 88.9021 63.602C89.4773 63.0269 90.2566 62.7026 91.07 62.7H289.92C290.735 62.6999 291.517 63.0231 292.094 63.5985C292.672 64.174 292.997 64.9548 293 65.7699V175.17C293 175.574 292.92 175.974 292.765 176.347C292.61 176.72 292.383 177.059 292.097 177.344C291.811 177.63 291.472 177.855 291.098 178.009C290.724 178.163 290.324 178.241 289.92 178.24V178.24Z" fill="#E5E5E5"/>
<path d="M285.73 174.05H95.29C94.4791 174.047 93.7017 173.726 93.1255 173.156C92.5493 172.585 92.2205 171.811 92.21 171V69.9999C92.2126 69.1839 92.5379 68.402 93.115 67.825C93.692 67.2479 94.4739 66.9226 95.29 66.9199H285.73C286.546 66.9226 287.328 67.2479 287.905 67.825C288.482 68.402 288.807 69.1839 288.81 69.9999V171C288.799 171.811 288.471 172.585 287.894 173.156C287.318 173.726 286.541 174.047 285.73 174.05V174.05Z" fill="white"/>
<path d="M148.58 129.21H112.75C112.355 129.21 111.976 129.053 111.696 128.773C111.417 128.494 111.26 128.115 111.26 127.72V90.4099C111.26 90.0138 111.417 89.6338 111.696 89.3528C111.975 89.0717 112.354 88.9126 112.75 88.9099H148.58C148.976 88.9126 149.355 89.0717 149.634 89.3528C149.913 89.6338 150.07 90.0138 150.07 90.4099V127.72C150.07 128.115 149.913 128.494 149.634 128.773C149.354 129.053 148.975 129.21 148.58 129.21V129.21ZM112.75 89.5099C112.632 89.5099 112.516 89.5332 112.407 89.5786C112.298 89.6239 112.2 89.6904 112.117 89.7741C112.034 89.8578 111.969 89.9571 111.925 90.0662C111.881 90.1754 111.859 90.2922 111.86 90.4099V127.72C111.859 127.838 111.881 127.954 111.925 128.064C111.969 128.173 112.034 128.272 112.117 128.356C112.2 128.439 112.298 128.506 112.407 128.551C112.516 128.597 112.632 128.62 112.75 128.62H148.58C148.698 128.62 148.814 128.597 148.923 128.551C149.032 128.506 149.13 128.439 149.213 128.356C149.296 128.272 149.361 128.173 149.405 128.064C149.449 127.954 149.471 127.838 149.47 127.72V90.4099C149.471 90.2922 149.449 90.1754 149.405 90.0662C149.361 89.9571 149.296 89.8578 149.213 89.7741C149.13 89.6904 149.032 89.6239 148.923 89.5786C148.814 89.5332 148.698 89.5099 148.58 89.5099H112.75Z" fill="#3F3E54"/>
<path d="M208.42 129.21H172.6C172.404 129.211 172.209 129.174 172.027 129.099C171.845 129.025 171.679 128.916 171.54 128.777C171.401 128.639 171.29 128.474 171.214 128.292C171.139 128.111 171.1 127.916 171.1 127.72V90.4099C171.1 90.0121 171.258 89.6306 171.539 89.3493C171.821 89.0679 172.202 88.9099 172.6 88.9099H208.42C208.818 88.9099 209.199 89.0679 209.481 89.3493C209.762 89.6306 209.92 90.0121 209.92 90.4099V127.72C209.92 127.916 209.881 128.111 209.806 128.292C209.73 128.474 209.62 128.639 209.48 128.777C209.341 128.916 209.175 129.025 208.993 129.099C208.811 129.174 208.617 129.211 208.42 129.21V129.21ZM172.6 89.5099C172.361 89.5099 172.132 89.6047 171.964 89.7735C171.795 89.9423 171.7 90.1712 171.7 90.4099V127.72C171.7 127.959 171.795 128.188 171.964 128.356C172.132 128.525 172.361 128.62 172.6 128.62H208.42C208.659 128.62 208.888 128.525 209.056 128.356C209.225 128.188 209.32 127.959 209.32 127.72V90.4099C209.32 90.2917 209.297 90.1747 209.252 90.0655C209.206 89.9563 209.14 89.8571 209.056 89.7735C208.973 89.6899 208.874 89.6236 208.765 89.5784C208.655 89.5332 208.538 89.5099 208.42 89.5099H172.6Z" fill="#3F3E54"/>
<path d="M268.27 129.21H232.44C232.045 129.21 231.666 129.053 231.386 128.773C231.107 128.494 230.95 128.115 230.95 127.72V90.4099C230.95 90.0138 231.107 89.6338 231.386 89.3528C231.665 89.0717 232.044 88.9126 232.44 88.9099H268.27C268.666 88.9126 269.045 89.0717 269.324 89.3528C269.603 89.6338 269.76 90.0138 269.76 90.4099V127.72C269.76 128.115 269.603 128.494 269.324 128.773C269.044 129.053 268.665 129.21 268.27 129.21ZM232.44 89.5099C232.201 89.5099 231.972 89.6047 231.804 89.7735C231.635 89.9423 231.54 90.1712 231.54 90.4099V127.72C231.54 127.959 231.635 128.188 231.804 128.356C231.972 128.525 232.201 128.62 232.44 128.62H268.27C268.388 128.62 268.504 128.597 268.613 128.551C268.722 128.506 268.82 128.439 268.903 128.356C268.986 128.272 269.051 128.173 269.095 128.064C269.139 127.954 269.161 127.838 269.16 127.72V90.4099C269.161 90.2922 269.139 90.1754 269.095 90.0662C269.051 89.9571 268.986 89.8578 268.903 89.7741C268.82 89.6904 268.722 89.6239 268.613 89.5786C268.504 89.5332 268.388 89.5099 268.27 89.5099H232.44Z" fill="#3F3E54"/>
<path d="M123.75 152C124.015 152 124.269 151.895 124.457 151.707C124.645 151.52 124.75 151.265 124.75 151C124.75 150.735 124.645 150.48 124.457 150.293C124.269 150.105 124.015 150 123.75 150H114.65C114.385 150 114.13 150.105 113.943 150.293C113.755 150.48 113.65 150.735 113.65 151C113.65 151.265 113.755 151.52 113.943 151.707C114.13 151.895 114.385 152 114.65 152H123.75Z" fill="#E5E5E5"/>
<path d="M146.68 146.06C146.945 146.06 147.199 145.955 147.387 145.767C147.575 145.58 147.68 145.325 147.68 145.06C147.68 144.795 147.575 144.54 147.387 144.353C147.199 144.165 146.945 144.06 146.68 144.06H114.68C114.415 144.06 114.16 144.165 113.973 144.353C113.785 144.54 113.68 144.795 113.68 145.06C113.68 145.325 113.785 145.58 113.973 145.767C114.16 145.955 114.415 146.06 114.68 146.06H146.68Z" fill="#E5E5E5"/>
<path d="M183.59 152C183.855 152 184.11 151.895 184.297 151.707C184.485 151.52 184.59 151.265 184.59 151C184.59 150.735 184.485 150.48 184.297 150.293C184.11 150.105 183.855 150 183.59 150H174.5C174.235 150 173.98 150.105 173.793 150.293C173.605 150.48 173.5 150.735 173.5 151C173.5 151.265 173.605 151.52 173.793 151.707C173.98 151.895 174.235 152 174.5 152H183.59Z" fill="#E5E5E5"/>
<path d="M206.52 146.06C206.785 146.06 207.04 145.955 207.227 145.767C207.415 145.58 207.52 145.325 207.52 145.06C207.52 144.795 207.415 144.54 207.227 144.353C207.04 144.165 206.785 144.06 206.52 144.06H174.52C174.255 144.06 174 144.165 173.813 144.353C173.625 144.54 173.52 144.795 173.52 145.06C173.52 145.325 173.625 145.58 173.813 145.767C174 145.955 174.255 146.06 174.52 146.06H206.52Z" fill="#E5E5E5"/>
<path d="M243.44 152C243.705 152 243.96 151.895 244.147 151.707C244.335 151.52 244.44 151.265 244.44 151C244.44 150.735 244.335 150.48 244.147 150.293C243.96 150.105 243.705 150 243.44 150H234.34C234.075 150 233.821 150.105 233.633 150.293C233.445 150.48 233.34 150.735 233.34 151C233.34 151.265 233.445 151.52 233.633 151.707C233.821 151.895 234.075 152 234.34 152H243.44Z" fill="#E5E5E5"/>
<path d="M266.37 146.06C266.635 146.06 266.89 145.955 267.077 145.767C267.265 145.58 267.37 145.325 267.37 145.06C267.37 144.795 267.265 144.54 267.077 144.353C266.89 144.165 266.635 144.06 266.37 144.06H234.37C234.105 144.06 233.851 144.165 233.663 144.353C233.475 144.54 233.37 144.795 233.37 145.06C233.37 145.325 233.475 145.58 233.663 145.767C233.851 145.955 234.105 146.06 234.37 146.06H266.37Z" fill="#E5E5E5"/>
<path d="M146.68 140.18C146.945 140.18 147.199 140.075 147.387 139.887C147.575 139.7 147.68 139.445 147.68 139.18C147.68 138.915 147.575 138.66 147.387 138.473C147.199 138.285 146.945 138.18 146.68 138.18H114.68C114.415 138.18 114.16 138.285 113.973 138.473C113.785 138.66 113.68 138.915 113.68 139.18C113.68 139.445 113.785 139.7 113.973 139.887C114.16 140.075 114.415 140.18 114.68 140.18H146.68Z" fill="#EB0029"/>
<path d="M206.52 140.18C206.785 140.18 207.04 140.075 207.227 139.887C207.415 139.7 207.52 139.445 207.52 139.18C207.52 138.915 207.415 138.66 207.227 138.473C207.04 138.285 206.785 138.18 206.52 138.18H174.52C174.255 138.18 174 138.285 173.813 138.473C173.625 138.66 173.52 138.915 173.52 139.18C173.52 139.445 173.625 139.7 173.813 139.887C174 140.075 174.255 140.18 174.52 140.18H206.52Z" fill="#EB0029"/>
<path d="M266.37 140.18C266.635 140.18 266.89 140.075 267.077 139.887C267.265 139.7 267.37 139.445 267.37 139.18C267.37 138.915 267.265 138.66 267.077 138.473C266.89 138.285 266.635 138.18 266.37 138.18H234.37C234.105 138.18 233.851 138.285 233.663 138.473C233.475 138.66 233.37 138.915 233.37 139.18C233.37 139.445 233.475 139.7 233.663 139.887C233.851 140.075 234.105 140.18 234.37 140.18H266.37Z" fill="#EB0029"/>
<path d="M140.94 122C141.205 122 141.459 121.895 141.647 121.707C141.835 121.52 141.94 121.265 141.94 121C141.94 120.735 141.835 120.48 141.647 120.293C141.459 120.105 141.205 120 140.94 120H120.39C120.125 120 119.87 120.105 119.683 120.293C119.495 120.48 119.39 120.735 119.39 121C119.39 121.265 119.495 121.52 119.683 121.707C119.87 121.895 120.125 122 120.39 122H140.95H140.94Z" fill="#E5E5E5"/>
<path d="M140.94 116C141.205 116 141.459 115.895 141.647 115.707C141.835 115.52 141.94 115.265 141.94 115C141.94 114.735 141.835 114.48 141.647 114.293C141.459 114.105 141.205 114 140.94 114H120.39C120.125 114 119.87 114.105 119.683 114.293C119.495 114.48 119.39 114.735 119.39 115C119.39 115.265 119.495 115.52 119.683 115.707C119.87 115.895 120.125 116 120.39 116H140.95H140.94Z" fill="#E5E5E5"/>
<path d="M130.66 109.01C134.211 109.01 137.09 106.131 137.09 102.58C137.09 99.0287 134.211 96.1499 130.66 96.1499C127.109 96.1499 124.23 99.0287 124.23 102.58C124.23 106.131 127.109 109.01 130.66 109.01Z" fill="#EB0029"/>
<path d="M200.79 122C201.055 122 201.31 121.895 201.497 121.707C201.685 121.52 201.79 121.265 201.79 121C201.79 120.735 201.685 120.48 201.497 120.293C201.31 120.105 201.055 120 200.79 120H180.23C179.965 120 179.71 120.105 179.523 120.293C179.335 120.48 179.23 120.735 179.23 121C179.23 121.265 179.335 121.52 179.523 121.707C179.71 121.895 179.965 122 180.23 122H200.79Z" fill="#E5E5E5"/>
<path d="M200.79 116C201.055 116 201.31 115.895 201.497 115.707C201.685 115.52 201.79 115.265 201.79 115C201.79 114.735 201.685 114.48 201.497 114.293C201.31 114.105 201.055 114 200.79 114H180.23C179.965 114 179.71 114.105 179.523 114.293C179.335 114.48 179.23 114.735 179.23 115C179.23 115.265 179.335 115.52 179.523 115.707C179.71 115.895 179.965 116 180.23 116H200.79Z" fill="#E5E5E5"/>
<path d="M190.51 109.01C194.061 109.01 196.94 106.131 196.94 102.58C196.94 99.0287 194.061 96.1499 190.51 96.1499C186.959 96.1499 184.08 99.0287 184.08 102.58C184.08 106.131 186.959 109.01 190.51 109.01Z" fill="#EB0029"/>
<path d="M260.63 122C260.895 122 261.15 121.895 261.337 121.707C261.525 121.52 261.63 121.265 261.63 121C261.63 120.735 261.525 120.48 261.337 120.293C261.15 120.105 260.895 120 260.63 120H240.07C239.805 120 239.55 120.105 239.363 120.293C239.175 120.48 239.07 120.735 239.07 121C239.07 121.265 239.175 121.52 239.363 121.707C239.55 121.895 239.805 122 240.07 122H260.63Z" fill="#E5E5E5"/>
<path d="M260.63 116C260.895 116 261.15 115.895 261.337 115.707C261.525 115.52 261.63 115.265 261.63 115C261.63 114.735 261.525 114.48 261.337 114.293C261.15 114.105 260.895 114 260.63 114H240.07C239.805 114 239.55 114.105 239.363 114.293C239.175 114.48 239.07 114.735 239.07 115C239.07 115.265 239.175 115.52 239.363 115.707C239.55 115.895 239.805 116 240.07 116H260.63Z" fill="#E5E5E5"/>
<path d="M250.35 109.01C253.901 109.01 256.78 106.131 256.78 102.58C256.78 99.0287 253.901 96.1499 250.35 96.1499C246.799 96.1499 243.92 99.0287 243.92 102.58C243.92 106.131 246.799 109.01 250.35 109.01Z" fill="#EB0029"/>
<path d="M55.1401 212.15L58.5801 214.03L56.3901 221.24L52.9501 221.55L51.0601 217.48L55.1401 212.15Z" fill="#F4BBB9"/>
<path d="M44.4899 226.56V230.01L39.1599 229.69L39.2399 226.86L44.4899 226.56Z" fill="#F4BBB9"/>
<path d="M56.3899 170.8L54.5099 194.3L48.5599 228.75L39.1599 227.5L42.2899 200.25L41.0399 175.19L56.3899 170.8Z" fill="#2F2E40"/>
<path d="M31.3299 153.26L53.8799 153.57L56.3899 170.8L40.9999 178L37.2399 191.78L56.3499 212.14L48.8299 221.54C48.8299 221.54 38.2199 207.14 30.3899 199C22.5599 190.86 26.3199 166.1 26.3199 166.1L31.3299 153.26Z" fill="#2F2E40"/>
<path d="M44.7999 108.78C48.6052 108.78 51.6899 105.695 51.6899 101.89C51.6899 98.0848 48.6052 95 44.7999 95C40.9947 95 37.9099 98.0848 37.9099 101.89C37.9099 105.695 40.9947 108.78 44.7999 108.78Z" fill="#F4BBB9"/>
<path d="M47.31 106.59V113.48L42.61 121C42.61 121 35.4 115.67 36.97 114.42C38.54 113.17 38.85 103.42 38.85 103.42L47.31 106.59Z" fill="#F4BBB9"/>
<path d="M47.3099 112.22L52.0099 117.86L50.1299 157.02L35.3999 156.71L32.8999 122.56L36.0299 113.79L38.1799 110.87L41.9799 116.61L47.3099 112.22Z" fill="white"/>
<path d="M54.8201 132.59L58.2701 145.74L54.8201 158.9L60.4601 166.42L65.4601 142.61C65.4601 142.61 61.7201 123.19 61.4001 121C61.0801 118.81 60.4601 118.49 60.4601 118.49L57.9601 118.8L54.8201 132.59Z" fill="#2F2E40"/>
<path d="M29.7599 137.6L27.5699 141.67L26.9499 148.56L28.1999 156.39L23.8099 163.6L19.4299 143.86L24.1299 118.49H25.9999L29.7599 137.6Z" fill="#2F2E40"/>
<path d="M56.3901 211.84C56.3901 211.84 60.7801 213.09 62.3901 213.41C64.0001 213.73 61.4501 219.67 61.4501 219.67C61.4501 219.67 59.8901 227.82 59.5701 229.38C59.2501 230.94 57.0701 236.27 54.2501 236.9C51.4301 237.53 53.3101 225.9 53.3101 225.9C52.7429 224.275 52.3245 222.601 52.0601 220.9C52.0601 219.65 53.9301 220.28 53.9301 220.28C58.9001 219.67 56.3901 211.84 56.3901 211.84Z" fill="#2F2E40"/>
<path d="M46.0499 236C45.7399 237.88 46.3699 237.88 41.3499 238.51C36.3299 239.14 37.5999 235 37.5999 235C37.8058 233.079 38.225 231.188 38.8499 229.36C39.7899 226.86 44.7999 229.99 44.7999 229.99C44.7999 229.99 46.3699 234.08 46.0499 236Z" fill="#2F2E40"/>
<path d="M38.8399 103.67L38.6799 106.46C37.4354 103.506 36.6465 100.381 36.3399 97.1901C36.0299 92.4901 41.3399 91.5501 44.4899 91.1901C47.6399 90.8301 52.9399 93.0701 52.9399 95.5701C52.9399 98.0701 47.3099 97.4501 45.1099 96.8301C42.9099 96.2101 41.9999 101.57 41.9999 101.57L40.7499 101.89L38.8399 103.67Z" fill="#2F2E40"/>
<path d="M49.16 114.44L47.31 112.22L41.98 116.61L47.31 120.37L49.16 114.44Z" fill="white"/>
<path d="M36.03 113.79L38.22 110.97L41.98 116.61L37.28 120.06L36.03 113.79Z" fill="white"/>
<path d="M55.7601 137L54.5101 148.91L57.0201 156.11L58.5801 163C58.5801 163 58.5801 169.58 52.3201 169.89C46.0601 170.2 40.7301 150.16 40.7301 150.16C40.7301 150.16 39.7901 154.54 39.1601 157.05C38.5301 159.56 27.8801 169.58 27.8801 169.58C27.8801 169.58 25.3801 169.27 23.1901 164.26C21.0001 159.25 27.5701 154.54 27.5701 154.54L29.4501 147.97L28.8201 139.82L24.4401 118.52L37.4401 111.79L36.0301 129.79L40.7301 143.88L47.7801 112.71L50.1301 114.44L60.1301 118.51L55.7601 137Z" fill="#2F2E40"/>
<path d="M87.3501 238.73H7.3501V238.07H87.4701L87.3501 238.73Z" fill="#3F3E54"/>
</svg>
